X: 1
T:King's Favourite
R:Jig
M:6/8
L:1/8
K:D
d2e|:fed dcd|Bgg Aff|Gee Fdd|ecA a2g|!
fed dcd|Bgg Aff|Gee Fdd|cBc d2e:|!
|:fed dcd|fed dcd|cAF fef|fgf edc|!
fed dcd|fed dcd|cAF fec|dBB B2e:|!
